X:869
T:The Rose Tree
S:Colin Hume's website,  colinhume.com  - chords can also be printed below the stave.
Q:1/2=100
M:2/2
C:Traditional English
R:Reel
K:D
P:A
|: fe | "D"d2B2 A2F2 | "/"ABAF A2A2 | "D"d2d2 "Bm"fede | "Em"f2e2 "A7"e2fe |\
"D"d2B2 A2F2 | "/"ABAF A2A2 | "G"d2cd "A7"e2de | "D"f2d2 d2 :|
P:B
|: de | "D"f2e2 f2g2 | "/"a2 ba g2f2 | "Em"e2 b2 b2 a2 | "A7"b2 e2e2 fe |\
"D"d2B2 A2F2 | "/"ABAF A2A2 | "G"d2 cd "A7"e2de | "D"f2d2 d2 :|

